src/cards/hearts_ace.svg

<svg version="1.1" id="Layer_1" xmlns="http://www.w3.org/2000/svg" xmlns:xlink="http://www.w3.org/1999/xlink" x="0px" y="0px"
	 width="100%" viewBox="0 0 336 496" enable-background="new 0 0 336 496" xml:space="preserve">
<path fill="currentColor" opacity="1.000000" stroke="none" 
	d="
M302.454102,497.000000 
	C297.667114,484.445435 293.333740,471.891083 289.002075,459.336090 
	C288.545349,458.012421 287.771454,456.950287 286.395599,456.520325 
	C284.582489,455.953705 283.396332,454.936066 283.902130,452.898529 
	C284.451080,450.687164 286.425385,451.059174 287.997375,451.011627 
	C291.320343,450.911072 294.651672,450.881744 297.972778,451.005127 
	C299.839722,451.074493 302.312012,450.358276 303.065704,452.936249 
	C304.003693,456.144562 300.710602,455.883698 298.975708,457.218567 
	C299.552551,461.165314 299.719788,464.871948 305.640778,464.809814 
	C316.972229,464.690887 316.998047,464.930969 317.871338,457.362122 
	C317.397369,456.229645 316.211334,456.412689 315.347992,456.003693 
	C314.126312,455.424957 313.713959,454.441101 313.834412,453.156433 
	C313.971954,451.689453 315.016357,451.146149 316.239227,451.127014 
	C320.058044,451.067291 323.880249,451.077301 327.697968,451.178925 
	C328.883911,451.210419 329.996552,451.697662 330.165924,453.168213 
	C330.338715,454.668427 329.850800,455.786652 328.323029,456.262695 
	C326.232941,456.913971 325.032104,458.393280 324.351532,460.400513 
	C320.298676,472.353943 316.237640,484.304596 312.089661,496.628082 
	C308.969391,497.000000 305.938812,497.000000 302.454102,497.000000 
M312.740692,475.557983 
	C313.086884,473.983612 314.241699,472.532104 313.367279,470.499786 
	C310.246521,470.273865 307.023346,469.659607 303.383606,471.131866 
	C304.631683,476.440063 306.296387,481.399414 308.732544,487.310577 
	C310.287872,482.864227 311.437408,479.577942 312.740692,475.557983 
z"/>
<path fill="currentColor" opacity="1.000000" stroke="none" 
	d="
M150.606125,204.120361 
	C157.724640,207.120575 162.931961,211.954926 167.235245,217.365784 
	C169.753784,217.422577 170.386505,215.613892 171.454147,214.441971 
	C182.494308,202.323654 196.017487,198.235504 211.698288,202.787781 
	C226.305237,207.028320 235.244843,217.209167 237.932571,232.014343 
	C240.737091,247.462830 235.298599,260.908417 225.441757,272.680847 
	C219.658752,279.587738 213.083771,285.722717 206.338821,291.699158 
	C193.076935,303.450073 177.666321,313.013458 168.777740,328.869324 
	C167.969833,328.699829 167.479156,328.741455 167.361053,328.551483 
	C158.547470,314.373688 145.155579,304.815704 132.771713,294.245117 
	C123.762321,286.554871 114.930420,278.703217 107.870728,269.075745 
	C99.619431,257.823303 95.694786,245.382996 98.175827,231.486252 
	C102.226036,208.800461 127.096756,194.578659 150.606125,204.120361 
z"/>
<path fill="currentColor" opacity="1.000000" stroke="none" 
	d="
M22.119755,60.313545 
	C17.370699,63.891533 12.146715,62.396370 7.292922,61.789551 
	C4.799871,61.477871 5.112461,58.602909 7.592490,57.603172 
	C10.667892,56.363434 11.542931,53.842846 12.457197,51.123688 
	C15.954555,40.722046 19.564833,30.357998 23.001938,19.936705 
	C23.948040,17.068130 25.295782,15.564348 28.633995,15.563059 
	C31.948469,15.561778 33.814056,16.494251 34.917816,19.762184 
	C38.482143,30.315180 42.298607,40.782906 46.000130,51.289749 
	C46.886940,53.806995 47.572502,56.416767 50.530396,57.429733 
	C52.064667,57.955158 52.412609,59.224228 52.073483,60.671295 
	C51.731136,62.132111 50.460598,62.223042 49.299389,62.239296 
	C45.304729,62.295227 41.307911,62.345501 37.314487,62.267014 
	C35.753185,62.236324 33.702438,62.808891 33.021702,60.701614 
	C32.200584,58.159756 34.446976,57.779228 36.028221,56.977680 
	C36.451508,56.763115 36.780647,56.362823 37.300171,55.923294 
	C36.480244,52.413910 36.357204,48.858265 30.957550,48.886627 
	C19.363297,48.947525 19.362143,48.727989 17.893866,55.706772 
	C18.487406,57.926029 22.269424,56.946701 22.119755,60.313545 
M32.316887,40.036812 
	C30.680693,36.160213 30.294964,31.755951 27.284658,27.781054 
	C24.173056,32.702709 23.328777,37.827579 21.862829,43.005615 
	C24.710386,43.976692 27.188654,43.577763 29.617205,43.651276 
	C31.580713,43.710716 32.874077,43.066269 32.316887,40.036812 
z"/>
<path fill="currentColor" opacity="1.000000" stroke="none" 
	d="
M305.228149,429.617401 
	C300.105957,432.351318 295.844330,431.489929 292.254150,427.591980 
	C289.125977,424.195587 289.019928,419.336487 291.749298,414.567719 
	C293.781555,411.016907 296.987396,408.596619 300.002228,405.969971 
	C302.623016,403.686676 305.065308,401.198578 308.140869,398.273804 
	C312.532776,403.826416 319.031830,407.186951 323.313049,412.949036 
	C326.956329,417.852570 327.159790,423.508850 324.111969,427.332977 
	C320.931671,431.323273 316.157776,432.082733 310.210968,429.233307 
	C308.454102,428.391479 307.076050,428.470215 305.228149,429.617401 
z"/>
<path fill="currentColor" opacity="1.000000" stroke="none" 
	d="
M34.669495,108.703186 
	C32.347298,110.820206 30.299868,112.715904 28.017193,114.829414 
	C23.329536,110.494270 18.696016,106.257187 14.123940,101.954811 
	C12.529266,100.454216 11.466784,98.561310 10.679737,96.509407 
	C9.013473,92.165291 9.678885,88.257401 13.114100,85.093460 
	C16.582771,81.898705 20.711601,81.780769 24.710653,83.768211 
	C26.946125,84.879173 28.452887,85.460838 30.985369,83.990784 
	C34.953548,81.687332 39.367744,81.702194 42.984547,85.137794 
	C46.526379,88.502182 47.075626,92.614433 45.169807,97.048225 
	C43.044384,101.992928 38.777172,105.049362 34.669495,108.703186 
z"/>
</svg>

<svg xmlns="http://www.w3.org/2000/svg" viewBox="0 0 336 496" xml:space="preserve"><path fill="currentColor" d="M302.454 497c-4.787-12.555-9.12-25.109-13.452-37.664-.457-1.324-1.23-2.386-2.606-2.816-1.814-.566-3-1.584-2.494-3.621.55-2.212 2.523-1.84 4.095-1.887 3.323-.1 6.655-.13 9.976-.007 1.867.07 4.339-.647 5.093 1.931.938 3.209-2.355 2.948-4.09 4.283.577 3.946.744 7.653 6.665 7.59 11.331-.118 11.357.122 12.23-7.447-.474-1.132-1.66-.95-2.523-1.358-1.222-.579-1.634-1.563-1.514-2.848.138-1.467 1.182-2.01 2.405-2.029 3.819-.06 7.641-.05 11.459.052 1.186.031 2.299.519 2.468 1.99.173 1.5-.315 2.618-1.843 3.094-2.09.651-3.29 2.13-3.971 4.138-4.053 11.953-8.114 23.904-12.262 36.227-3.12.372-6.151.372-9.636.372m10.287-21.442c.346-1.574 1.5-3.026.626-5.058-3.12-.226-6.344-.84-9.983.632 1.248 5.308 2.912 10.267 5.349 16.179 1.555-4.447 2.704-7.733 4.008-11.753zM150.606 204.12c7.119 3 12.326 7.835 16.63 13.246 2.518.057 3.15-1.752 4.218-2.924 11.04-12.118 24.563-16.206 40.244-11.654 14.607 4.24 23.547 14.421 26.235 29.226 2.804 15.449-2.634 28.894-12.491 40.667-5.783 6.907-12.358 13.042-19.103 19.018-13.262 11.751-28.673 21.314-37.561 37.17-.808-.17-1.299-.128-1.417-.318-8.814-14.177-22.205-23.735-34.59-34.306-9.009-7.69-17.84-15.542-24.9-25.17-8.252-11.252-12.176-23.692-9.695-37.589 4.05-22.686 28.92-36.907 52.43-27.366zM22.12 60.314c-4.75 3.578-9.973 2.082-14.827 1.476-2.493-.312-2.18-3.187.3-4.187 3.075-1.24 3.95-3.76 4.864-6.48 3.498-10.401 7.108-20.765 10.545-31.186.946-2.869 2.294-4.373 5.632-4.374 3.314-.001 5.18.931 6.284 4.2C38.482 30.314 42.298 40.782 46 51.29c.887 2.517 1.573 5.127 4.53 6.14 1.535.525 1.883 1.794 1.543 3.241-.342 1.461-1.612 1.552-2.774 1.568-3.994.056-7.991.107-11.985.028-1.56-.03-3.612.542-4.292-1.565-.821-2.542 1.425-2.923 3.006-3.724.424-.215.753-.615 1.272-1.055-.82-3.51-.943-7.065-6.342-7.036-11.595.06-11.596-.159-13.064 6.82.593 2.219 4.375 1.24 4.226 4.607m10.197-20.277c-1.636-3.877-2.022-8.281-5.032-12.256-3.112 4.922-3.956 10.047-5.422 15.225 2.847.97 5.326.572 7.754.645 1.964.06 3.257-.585 2.7-3.614zM305.228 429.617c-5.122 2.734-9.384 1.873-12.974-2.025-3.128-3.396-3.234-8.256-.505-13.024 2.033-3.551 5.238-5.971 8.253-8.598 2.621-2.283 5.063-4.771 8.139-7.696 4.392 5.552 10.89 8.913 15.172 14.675 3.643 4.904 3.847 10.56.799 14.384-3.18 3.99-7.954 4.75-13.901 1.9-1.757-.842-3.135-.763-4.983.384zM34.67 108.703c-2.323 2.117-4.37 4.013-6.653 6.126-4.687-4.335-9.321-8.572-13.893-12.874-1.595-1.5-2.657-3.394-3.444-5.446-1.667-4.344-1.001-8.252 2.434-11.416 3.469-3.194 7.598-3.312 11.597-1.325 2.235 1.111 3.742 1.693 6.274.223 3.969-2.304 8.383-2.289 12 1.147 3.541 3.364 4.09 7.476 2.185 11.91-2.126 4.945-6.393 8.001-10.5 11.655z"/></svg>
